X:15
T: Bill the Weaver's #1
S: "Johnny O'Leary of Sliabh Luachra" (#219)
Z: B.Black
L: 1/8
M: 2/4
R: polka
K: D
FA GB|AF/G/A f/e/d/B/|AF ED/E/|FE E/F//E//D/E/|
F/G/A/F/ GB|AF/A/ f/e/d/B/|AF EF/E/|D2 D2 :|
e/f/e/d/ BA|de f/g/f/e/|dB AF/A/|BE E2|
e/f/e/d/ BA|de f/g/f/e/|dB AF/A/|D2 D2 :|
